icons/image.svg

<svg xmlns="http://www.w3.org/2000/svg" width="24" height="24" viewBox="0 0 24 24">
  <path d="M20,2 C21.1045695,2 22,2.8954305 22,4 L22,20 C22,21.1045695 21.1045695,22 20,22 L4,22 C2.8954305,22 2,21.1045695 2,20 L2,4 C2,2.8954305 2.8954305,2 4,2 L20,2 Z M8.3598156,10.7938287 C8.31335254,10.8325479 8.27049794,10.8754025 8.23177872,10.9218655 L4,16 L4,19 C4,19.5522847 4.44771525,20 5,20 L19,20 C19.5522847,20 20,19.5522847 20,19 L20,16 L17.7071068,13.7071068 C17.3165825,13.3165825 16.6834175,13.3165825 16.2928932,13.7071068 L14.7743051,15.2256949 C14.3837808,15.6162192 13.7506159,15.6162192 13.3600916,15.2256949 C13.3387192,15.2043225 13.3183267,15.1819921 13.2989771,15.1587725 L9.76822128,10.9218655 C9.4146572,10.4975886 8.7840925,10.4402646 8.3598156,10.7938287 Z M16,6 C14.8954305,6 14,6.8954305 14,8 C14,9.1045695 14.8954305,10 16,10 C17.1045695,10 18,9.1045695 18,8 C18,6.8954305 17.1045695,6 16,6 Z"/>
</svg>

<svg xmlns="http://www.w3.org/2000/svg" viewBox="0 0 24 24">
  <path d="M20 2a2 2 0 0 1 2 2v16a2 2 0 0 1-2 2H4a2 2 0 0 1-2-2V4c0-1.1.9-2 2-2h16zM8.36 10.8a1 1 0 0 0-.13.12L4 16v3a1 1 0 0 0 1 1h14a1 1 0 0 0 1-1v-3l-2.3-2.3a1 1 0 0 0-1.4 0l-1.53 1.53a1 1 0 0 1-1.47-.07l-3.53-4.24a1 1 0 0 0-1.41-.13zM16 6a2 2 0 1 0 0 4 2 2 0 0 0 0-4z"/>
</svg>
